X:1
T:Sumatra, 78.78.77
T:Sumatra, 78.78.77
T:Julia Randall Higinbotham (1850–1895)
T:Public Domain Courtesy of the Cyber Hymnal™
C:Julia Randall Higinbotham (1850–1895)
Z:Public Domain
Z:Courtesy of the Cyber Hymnal™
%%score ( 1 2 ) ( 3 4 )
L:1/8
Q:1/4=108
M:4/4
K:Ab
V:1 treble 
V:2 treble 
V:3 bass 
V:4 bass 
V:1
 [Ec]3 [EB] [EA]2 [CE]2 | [=B,G]2 [B,F]2 [CE]4 | [DF]3 [EG] [EA]2 [EA]2 | [CA]2 (Bc) [Ec]2 [EB]2 | %4
 [=DB]2 (FA) [EG]2 [EB]2 | [=DB]2 (FA) [EG]4 | G3 G =B2 G2 | [G=d]2 [^Fd]2 [Gd]4 | %8
 [=D=B]4 [D_B]3 [EB] | [Ec]2 [_Gc]2 [Fd]2 [FB]2 | G4 [CA]2 (GF) | [CE]2 ([=B,=D][CE]) [Ee]2 G2 | %12
 [CA]6 z2 |] %13
V:2
 x8 | x8 | x8 | x2 =D2 x4 | x2 =D2 x4 | x2 F2 x4 | G3 G =B2 G2 | x8 | x8 | x8 | (E2 D2) =B,2 x2 | %11
 x6 (E_D) | x8 |] %13
V:3
 [A,,A,]3 [B,,G,] [C,A,]2 [E,A,]2 | [=D,A,]2 [D,A,]2 [E,A,]4 | [D,A,]3 [D,B,] [C,A,]2 [A,,C]2 | %3
 [F,A,]2 [F,A,]2 [E,A,]2 [E,G,]2 | [B,,F,]2 [B,,B,]2 [E,B,]2 [E,G,]2 | [F,B,]2 [=D,B,]2 [E,B,]4 | %6
 G,3 G, =B,2 G,2 | [=D,=B,]2 [D,=A,]2 [G,,B,]4 | G,4 [A,B,]3 [G,B,] | %9
 [_G,A,]2 [E,A,]2 [D,A,]2 [D,D]2 | B,4 [F,A,]2 [=D,A,]2 | [E,A,]2 A,2 [E,G,]2 (CB,) | %12
 [A,,A,]6 z2 |] %13
V:4
 x8 | x8 | x8 | x8 | x8 | x8 | G,3 G, =B,2 G,2 | x8 | G,4 x4 | x8 | (E,2 =E,2) x4 | %11
 x2 (F,E,) x E,2 x | x8 |] %13

